X: 1
T: House In The Glen, The
M: 6/8
L: 1/8
R: jig
K: Dmaj
|:AG|FDA, DFB|AFD EDB,|DFA def|gfg eag|
fdB AFD|EDB, DFA|dAd eag|fdd d:|
|:fg|afa geg|fdf ecA|dAd fed|cAc efg|
afa geg|fdf ecA|dAd eag|fdd d:|
